findly-builder/apps/searchassist/src/assets/images/arrow-dropdown.svg

<?xml version="1.0" encoding="UTF-8"?>
<svg width="14px" height="8px" viewBox="0 0 14 8" version="1.1" xmlns="http://www.w3.org/2000/svg" xmlns:xlink="http://www.w3.org/1999/xlink">
    <!-- Generator: Sketch 53.2 (72643) - https://sketchapp.com -->
    <title>arrow-dropdown</title>
    <desc>Created with Sketch.</desc>
    <g id="Page-1" stroke="none" stroke-width="1" fill="none" fill-rule="evenodd">
        <g id="arrow-dropdown" fill="#8A959F">
            <path d="M0.173090909,0.185142857 C0.381818182,-0.0388571429 0.708909091,-0.0594285714 0.939272727,0.123428571 L1.00545455,0.185142857 L6.87272727,6.47542857 L12.74,0.185142857 C12.9487273,-0.0388571429 13.2758182,-0.0594285714 13.5074545,0.123428571 L13.5723636,0.185142857 C13.7823636,0.409142857 13.8014545,0.76 13.6296364,1.008 L13.5723636,1.07771429 L7.28890909,7.81485714 C7.08018182,8.03885714 6.75309091,8.05942857 6.52272727,7.87657143 L6.45654545,7.81485714 L0.173090909,1.07771429 C-0.0572727273,0.832 -0.0572727273,0.432 0.173090909,0.185142857 Z" id="Path"></path>
        </g>
    </g>
</svg>

<svg width="14" height="8" xmlns="http://www.w3.org/2000/svg"><path d="M.173.185A.56.56 0 0 1 .94.123l.066.062 5.868 6.29L12.74.185a.561.561 0 0 1 .767-.062l.065.062c.21.224.23.575.058.823l-.058.07L7.29 7.815a.56.56 0 0 1-.766.062l-.066-.062L.173 1.078a.663.663 0 0 1 0-.893Z" fill="#8A959F" fill-rule="evenodd"/></svg>
